X:203
T:Killavil Fancy
T:Eilish Brogan
T:Ten Pound Float
R:reel
D:Music at Matt Molloy's
D:Frankie Gavin & Alec Finn
Z:Sometimes played doubled.
Z:id:hn-reel-101
M:C|
K:G
~B3G A2BA|GE~E2 cEGE|DGBG A2BA|GEED EFGA|
~B3d A2BA|GE~E2 cEGE|DGBG A2BA|GEED ~E3D||
GABd edge|dB~B2 dBAB|GABd edge|dBAG EDB,D|
GABd edge|dB~B2 dega|(3bag ag egde|gedB AGEG||
